public/zoom.svg

<svg width="96" height="96" viewBox="0 0 96 96" fill="none" xmlns="http://www.w3.org/2000/svg">
<path d="M6 34.8C6 24.7191 6 19.6786 7.96188 15.8282C9.6876 12.4413 12.4413 9.6876 15.8282 7.96188C19.6786 6 24.7191 6 34.8 6H61.2C71.2809 6 76.3214 6 80.1718 7.96188C83.5587 9.6876 86.3124 12.4413 88.0381 15.8282C90 19.6786 90 24.7191 90 34.8V61.2C90 71.2809 90 76.3214 88.0381 80.1718C86.3124 83.5587 83.5587 86.3124 80.1718 88.0381C76.3214 90 71.2809 90 61.2 90H34.8C24.7191 90 19.6786 90 15.8282 88.0381C12.4413 86.3124 9.6876 83.5587 7.96188 80.1718C6 76.3214 6 71.2809 6 61.2V34.8Z" fill="#4087FC"/>
<path d="M29.1667 33C27.4178 33 26 34.599 26 36.5714V53.8929C26 58.9226 29.6153 63 34.075 63L52.8333 62.8215C54.5822 62.8215 56 61.2225 56 59.2501V41.7501C56 36.7203 51.7097 33.0001 47.25 33.0001L29.1667 33Z" fill="white"/>
<path d="M60.2805 39.819C59.1489 40.9379 58.5 42.5528 58.5 44.2501V51.4983C58.5 53.1955 59.1489 54.8104 60.2805 55.9293L67.322 62.1311C68.7548 63.5479 71 62.4003 71 60.2513V35.8379C71 33.6889 68.7548 32.5413 67.322 33.9581L60.2805 39.819Z" fill="white"/>
</svg>

<svg xmlns="http://www.w3.org/2000/svg" width="96" height="96" fill="none" viewBox="0 0 96 96"><path fill="#4087fc" d="M6 34.8c0-10.08 0-15.121 1.962-18.972a18 18 0 0 1 7.866-7.866C19.678 6 24.72 6 34.8 6h26.4c10.08 0 15.121 0 18.972 1.962a18 18 0 0 1 7.866 7.866C90 19.678 90 24.72 90 34.8v26.4c0 10.08 0 15.121-1.962 18.972a18 18 0 0 1-7.866 7.866C76.322 90 71.28 90 61.2 90H34.8c-10.08 0-15.121 0-18.972-1.962a18 18 0 0 1-7.866-7.866C6 76.322 6 71.28 6 61.2z"/><path fill="#fff" d="M29.167 33C27.417 33 26 34.599 26 36.571v17.322C26 58.923 29.615 63 34.075 63l18.758-.178c1.75 0 3.167-1.6 3.167-3.572v-17.5c0-5.03-4.29-8.75-8.75-8.75zm31.113 6.819c-1.131 1.119-1.78 2.734-1.78 4.431v7.248c0 1.698.649 3.312 1.78 4.431l7.042 6.202c1.433 1.417 3.678.27 3.678-1.88V35.838c0-2.15-2.245-3.297-3.678-1.88z"/></svg>
